X:1
L:1/8
M:6/8
K:D
 ded d2 f | ede d3 | dAF dAF | DFG A3 :: aba afd | ged cBA | aba afd | gec d3 :: DFA DFA | 
 dfe fed | DFA DFA | gec d3 :|
